X:15
T:Es flog ein kleins Waldvgelein ...
R:Volkslied
O:
B:Frau Nachtigall (Straburg - 1928)
Z:<anamnese@laposte.net> -- http://anamnese.fr.st
N:p.40
M:C
L:1/4
Q:1/4=150
K:G
"G"G | GdBG | "D"F3/2G/ AD | "C" E G "Am" G "D7" F | "G"G2z :|
 G | Gd d/c/ B | A2 Ac | BAAB G |
